X:3
T:Jenny Picking Cockles
R:reel
H:See also #774, #427, #528.
H:Related to "Jenny's Welcome to Charlie", #47.
D:Patrick Street 2.
D:Michael McGoldrick: Morning Rory
Z:id:hn-reel-3
M:C|
K:Dmix
d2dc AG~G2|FGAB cAGA|d2dc AGEF|GEcE EDD2|
d2dc AG~G2|FGAB c2cd|eddc AGEF|GEcE EDD2:|
|:~f3d efed|^cA~A2 ^cdeg|~f3d ed^cd|eaag edde|
~f3d efed|^cAAB =c2cd|eddc AGEF|GEcE EDD2:|
